modules/feathericon/icons/gift.svg

<?xml version="1.0" encoding="UTF-8"?>
<svg width="10px" height="10px" viewBox="0 0 10 10" version="1.1" xmlns="http://www.w3.org/2000/svg" xmlns:xlink="http://www.w3.org/1999/xlink">
    <!-- Generator: sketchtool 48.1 (47250) - http://www.bohemiancoding.com/sketch -->
    <title>gift</title>
    <desc>Created with sketchtool.</desc>
    <defs></defs>
    <g id="e-commerce" stroke="none" stroke-width="1" fill="none" fill-rule="evenodd">
        <g id="gift" fill="#000000">
            <path d="M6,9 L4,9 L4,7 L1,7 L1,10 L9,10 L9,7 L6,7 L6,9 Z M0,6 C3.78956126e-14,4.63891877 3.78956126e-14,3.97225211 0,4 C-1.92554306e-15,3.33333333 0.333333333,3 1,3 L3.21848358,3 L3.28034782,2.98403201 C2.55604574,2.87775239 2,2.25381191 2,1.5 C2,0.671572875 2.67157288,0 3.5,0 C4.32842712,0 5,0.671572875 5,1.5 C5,0.671572875 5.67157288,0 6.5,0 C7.32842712,0 8,0.671572875 8,1.5 C8,2.247979 7.4525262,2.86808865 6.73643548,2.98147206 L6.80933865,3 L9,3 C9.66666667,3 10,3.33333333 10,4 C10,4 10,4.66666667 10,6 L6,6 L6,4 L4,4 L4,6 L0,6 Z M6.5,2 C6.77614237,2 7,1.77614237 7,1.5 C7,1.22385763 6.77614237,1 6.5,1 C6.22385763,1 6,1.22385763 6,1.5 C6,1.59492905 6,1.76159571 6,2 C6.24416746,2 6.41083413,2 6.5,2 Z M3.5,2 C3.58914507,2 3.75581174,2 4,2 C4,1.76161651 4,1.59494985 4,1.5 C4,1.22385763 3.77614237,1 3.5,1 C3.22385763,1 3,1.22385763 3,1.5 C3,1.77614237 3.22385763,2 3.5,2 Z" id="Shape"></path>
        </g>
    </g>
</svg>

<svg width="10" height="10" xmlns="http://www.w3.org/2000/svg"><path d="M6 9H4V7H1v3h8V7H6v2zM0 6V4c0-.667.333-1 1-1h2.218l.062-.016A1.5 1.5 0 1 1 5 1.5a1.5 1.5 0 1 1 1.736 1.481L6.81 3H9c.667 0 1 .333 1 1v2H6V4H4v2H0zm6.5-4a.5.5 0 1 0-.5-.5V2h.5zm-3 0H4v-.5a.5.5 0 1 0-.5.5z" fill="#000" fill-rule="evenodd"/></svg>
